X:1
L:1/4
Q:1/4=200
M:6/8
V:1
V:2 clef=bass
K:F
[V:1] [Ad]3/4 z z/4 e/^c/ | [dfa]3/4 z2 z/4 | [dgb]3/4 z2 z/4 | [cfa]3/4 z/4 [cfa]3/4 z/4 [cfa]3/4 z/4 |
[V:2] [A,,,A,,]3/4 z/4 [A,,,A,,]/ [A,,,A,,]/[A,,,A,,]/[A,,,A,,]/ | [D,,D,]3/4 z/4 [D,,D,]/ [D,,D,]/[D,,D,]/[D,,D,]/ | [G,,,G,,]3/4 z/4 [G,,,G,,]/ [G,,,G,,]/[G,,,G,,]/[G,,,G,,]/ | [F,,F,]3/4 z/4 [F,,F,]/ [F,,F,]3/4 z/4 [F,,F,]/ |
